X: 23106
T: Laurel Cottage
R: slide
M: 12/8
K: Gmajor
|:dBA Gzg- gfd BAA|dBA GzB DEG AGG|
dBA Gzg- gfd BAA|G3- GAB dBe edB:|
|:a2b gfd zee dBd|g2a gfd BAA GA/B/d|
a2b gfd zee dBA|G3- GAB dBe edB:|

